home-variant-outline.svg

<svg fill="currentColor" viewBox="0 0 24 24"><path d="M9 13h6v6h3v-9l-6-4.5L6 10v9h3zm-5 8V9l8-6 8 6v12z"/></svg>

<svg  viewBox="0 0 24 24" fill="currentColor"><path  d="M9,13H15V19H18V10L12,5.5L6,10V19H9V13M4,21V9L12,3L20,9V21H4Z"/></svg>
